public/favicon.svg

<?xml version="1.0" encoding="UTF-8" standalone="no"?>
<!DOCTYPE svg PUBLIC "-//W3C//DTD SVG 1.1//EN" "http://www.w3.org/Graphics/SVG/1.1/DTD/svg11.dtd">
<!-- Created with Vectornator (http://vectornator.io/) -->
<svg height="100%" stroke-miterlimit="10" style="fill-rule:nonzero;clip-rule:evenodd;stroke-linecap:round;stroke-linejoin:round;" version="1.1" viewBox="0 0 1060 1060" width="100%" xml:space="preserve" xmlns="http://www.w3.org/2000/svg" xmlns:vectornator="http://vectornator.io" xmlns:xlink="http://www.w3.org/1999/xlink">
<defs>
<path d="M18 530C18 247.23 247.23 18 530 18C812.77 18 1042 247.23 1042 530C1042 812.77 812.77 1042 530 1042C247.23 1042 18 812.77 18 530Z" id="Fill"/>
<linearGradient gradientTransform="matrix(1.57301 4.45624e-18 9.4976e-18 1.57301 -275.383 -113.55)" gradientUnits="userSpaceOnUse" id="LinearGradient" x1="179" x2="845" y1="512" y2="512">
<stop offset="0" stop-color="#ffbd59"/>
<stop offset="1" stop-color="#ff6b11"/>
</linearGradient>
<path d="M526.594-60.9176C304.908-59.9515 116.119 78.6058 40.4951 273.472C21.1785 347.155 9.49254 423.942 6.77595 503.033C7.24785 509.18 7.66942 515.345 8.34739 521.433C7.70245 521.761 7.09055 522.147 6.44719 522.48C6.35595 528.198 6.18607 533.894 6.18607 539.634C6.18607 921.02 210.17 1254.49 514.809 1437.71C515.856 1437.09 516.975 1436.58 518.018 1435.94C523.152 1439 528.486 1441.7 533.732 1444.59C844.725 1262.9 1053.81 925.798 1053.81 539.634C1053.81 538.385 1053.75 537.15 1053.75 535.903C1051.8 534.739 1049.95 533.439 1047.98 532.301C1050.26 515.164 1051.45 497.708 1052.04 480.116C1048.49 416.788 1039.38 354.967 1025.07 295.145C954.859 87.3329 758-61.9259 526.594-60.9176Z" id="Fill_2"/>
<linearGradient gradientTransform="matrix(1.57301 4.45624e-18 9.4976e-18 1.57301 -275.383 -113.55)" gradientUnits="userSpaceOnUse" id="LinearGradient_2" x1="178.274" x2="844.274" y1="366.436" y2="366.436">
<stop offset="0" stop-color="#ffbd59"/>
<stop offset="1" stop-color="#ff6b11"/>
</linearGradient>
<linearGradient gradientTransform="matrix(1.57301 4.45624e-18 9.4976e-18 1.57301 -275.383 -113.55)" gradientUnits="userSpaceOnUse" id="LinearGradient_3" x1="-1.15388" x2="664.846" y1="700.221" y2="700.221">
<stop offset="0" stop-color="#ff1148"/>
<stop offset="1" stop-color="#ee3cff"/>
</linearGradient>
<linearGradient gradientTransform="matrix(1.57301 4.45624e-18 9.4976e-18 1.57301 -275.383 -113.55)" gradientUnits="userSpaceOnUse" id="LinearGradient_4" x1="341.43" x2="1007.43" y1="698.728" y2="698.728">
<stop offset="0" stop-color="#00d2ff"/>
<stop offset="1" stop-color="#2aff75"/>
</linearGradient>
</defs>
<clipPath id="ArtboardFrame">
<rect height="1060" width="1060" x="0" y="0"/>
</clipPath>
<g clip-path="url(#ArtboardFrame)" id="Layer-1" vectornator:layerName="Layer 1">
<g opacity="1" vectornator:layerName="Group 4">
<use fill="none" opacity="1" stroke="#310024" stroke-linecap="butt" stroke-linejoin="miter" stroke-width="40" vectornator:layerName="Oval 1" xlink:href="#Fill"/>
<clipPath clip-rule="nonzero" id="ClipPath">
<use xlink:href="#Fill"/>
</clipPath>
<g clip-path="url(#ClipPath)">
<g opacity="1" vectornator:layerName="Group 3">
<path d="M526.594-60.9176C304.908-59.9515 116.119 78.6058 40.4951 273.472C21.1785 347.155 9.49254 423.942 6.77595 503.033C7.24785 509.18 7.66942 515.345 8.34739 521.433C7.70245 521.761 7.09055 522.147 6.44719 522.48C6.35595 528.198 6.18607 533.894 6.18607 539.634C6.18607 921.02 210.17 1254.49 514.809 1437.71C515.856 1437.09 516.975 1436.58 518.018 1435.94C523.152 1439 528.486 1441.7 533.732 1444.59C844.725 1262.9 1053.81 925.798 1053.81 539.634C1053.81 538.385 1053.75 537.15 1053.75 535.903C1051.8 534.739 1049.95 533.439 1047.98 532.301C1050.26 515.164 1051.45 497.708 1052.04 480.116C1048.49 416.788 1039.38 354.967 1025.07 295.145C954.859 87.3329 758-61.9259 526.594-60.9176Z" fill="url(#LinearGradient)" fill-rule="nonzero" opacity="0.332045" stroke="#310024" stroke-linecap="butt" stroke-linejoin="miter" stroke-width="40" vectornator:layerName="path"/>
<g opacity="1" vectornator:layerName="path">
<use fill="none" opacity="1" stroke="#310024" stroke-linecap="butt" stroke-linejoin="miter" stroke-width="40" vectornator:layerName="path" xlink:href="#Fill_2"/>
<clipPath clip-rule="nonzero" id="ClipPath_2">
<use xlink:href="#Fill_2"/>
</clipPath>
<g clip-path="url(#ClipPath_2)">
<path d="M5.04878 465.141C3.7888 175.849 237.284-59.6894 526.575-60.9502C815.866-62.2109 1051.41 171.285 1052.67 460.576C1053.93 749.867 820.433 985.405 531.141 986.667C241.849 987.927 6.31034 754.432 5.04878 465.141Z" fill="url(#LinearGradient_2)" fill-rule="nonzero" opacity="1" stroke="#310024" stroke-linecap="butt" stroke-linejoin="miter" stroke-width="40" vectornator:layerName="Oval 1"/>
<path d="M-277.193 990.189C-278.454 700.898-44.9589 465.359 244.332 464.098C533.624 462.838 769.163 696.333 770.423 985.624C771.685 1274.92 538.189 1510.46 248.897 1511.72C-40.394 1512.98-275.932 1279.48-277.193 990.189Z" fill="url(#LinearGradient_3)" fill-rule="nonzero" opacity="1" stroke="#310024" stroke-linecap="butt" stroke-linejoin="miter" stroke-width="40" vectornator:layerName="Oval 2"/>
<path d="M261.695 987.84C260.435 698.549 493.93 463.011 783.221 461.749C1072.51 460.489 1308.06 693.984 1309.32 983.275C1310.58 1272.57 1077.08 1508.1 787.788 1509.36C498.495 1510.63 262.957 1277.13 261.695 987.84Z" fill="url(#LinearGradient_4)" fill-rule="nonzero" opacity="1" stroke="#310024" stroke-linecap="butt" stroke-linejoin="miter" stroke-width="40" vectornator:layerName="Oval 3"/>
</g>
</g>
</g>
</g>
</g>
<path d="M18 530C18 247.23 247.23 18 530 18C812.77 18 1042 247.23 1042 530C1042 812.77 812.77 1042 530 1042C247.23 1042 18 812.77 18 530Z" fill="none" opacity="1" stroke="#310024" stroke-linecap="butt" stroke-linejoin="miter" stroke-width="40" vectornator:layerName="Oval 1"/>
</g>
</svg>

<svg stroke-miterlimit="10" style="fill-rule:nonzero;clip-rule:evenodd;stroke-linecap:round;stroke-linejoin:round" viewBox="0 0 1060 1060" xml:space="preserve" xmlns="http://www.w3.org/2000/svg" xmlns:vectornator="http://vectornator.io" xmlns:xlink="http://www.w3.org/1999/xlink"><defs><linearGradient gradientTransform="matrix(1.57301 0 0 1.57301 -275.383 -113.55)" gradientUnits="userSpaceOnUse" id="d" x1="179" x2="845" y1="512" y2="512"><stop offset="0" stop-color="#ffbd59"/><stop offset="1" stop-color="#ff6b11"/></linearGradient><linearGradient gradientTransform="matrix(1.57301 0 0 1.57301 -275.383 -113.55)" gradientUnits="userSpaceOnUse" id="g" x1="178.274" x2="844.274" y1="366.436" y2="366.436"><stop offset="0" stop-color="#ffbd59"/><stop offset="1" stop-color="#ff6b11"/></linearGradient><linearGradient gradientTransform="matrix(1.57301 0 0 1.57301 -275.383 -113.55)" gradientUnits="userSpaceOnUse" id="h" x1="-1.154" x2="664.846" y1="700.221" y2="700.221"><stop offset="0" stop-color="#ff1148"/><stop offset="1" stop-color="#ee3cff"/></linearGradient><linearGradient gradientTransform="matrix(1.57301 0 0 1.57301 -275.383 -113.55)" gradientUnits="userSpaceOnUse" id="i" x1="341.43" x2="1007.43" y1="698.728" y2="698.728"><stop offset="0" stop-color="#00d2ff"/><stop offset="1" stop-color="#2aff75"/></linearGradient><path d="M18 530C18 247.23 247.23 18 530 18s512 229.23 512 512-229.23 512-512 512S18 812.77 18 530z" id="b"/><path d="M526.594-60.918c-221.686.966-410.475 139.524-486.099 334.39C21.18 347.155 9.493 423.942 6.776 503.033c.472 6.147.893 12.312 1.571 18.4-.645.328-1.256.714-1.9 1.047-.091 5.718-.26 11.414-.26 17.154 0 381.386 203.983 714.856 508.622 898.076 1.047-.62 2.166-1.13 3.209-1.77 5.134 3.06 10.468 5.76 15.714 8.65 310.993-181.69 520.078-518.792 520.078-904.956 0-1.249-.06-2.484-.06-3.731-1.95-1.164-3.8-2.464-5.77-3.602 2.28-17.137 3.47-34.593 4.06-52.185-3.55-63.328-12.66-125.149-26.97-184.971C954.859 87.333 758-61.925 526.594-60.918z" id="e"/></defs><clipPath id="a"><path d="M0 0h1060v1060H0z"/></clipPath><g clip-path="url(#a)" vectornator:layerName="Layer 1"><g vectornator:layerName="Group 4"><use fill="none" stroke="#310024" stroke-width="40" vectornator:layerName="Oval 1" xlink:href="#b"/><clipPath clip-rule="nonzero" id="c"><use xlink:href="#b"/></clipPath><g vectornator:layerName="Group 3" clip-path="url(#c)"><path d="M526.594-60.918c-221.686.966-410.475 139.524-486.099 334.39C21.18 347.155 9.493 423.942 6.776 503.033c.472 6.147.893 12.312 1.571 18.4-.645.328-1.256.714-1.9 1.047-.091 5.718-.26 11.414-.26 17.154 0 381.386 203.983 714.856 508.622 898.076 1.047-.62 2.166-1.13 3.209-1.77 5.134 3.06 10.468 5.76 15.714 8.65 310.993-181.69 520.078-518.792 520.078-904.956 0-1.249-.06-2.484-.06-3.731-1.95-1.164-3.8-2.464-5.77-3.602 2.28-17.137 3.47-34.593 4.06-52.185-3.55-63.328-12.66-125.149-26.97-184.971C954.859 87.333 758-61.925 526.594-60.918z" fill="url(#d)" opacity=".332" stroke="#310024" stroke-width="40" vectornator:layerName="path"/><g vectornator:layerName="path"><use fill="none" stroke="#310024" stroke-width="40" vectornator:layerName="path" xlink:href="#e"/><clipPath clip-rule="nonzero" id="f"><use xlink:href="#e"/></clipPath><g clip-path="url(#f)" stroke="#310024" stroke-width="40"><path d="M5.049 465.141C3.789 175.849 237.284-59.689 526.575-60.95c289.291-1.26 524.835 232.235 526.095 521.526 1.26 289.291-232.237 524.829-521.529 526.091-289.292 1.26-524.83-232.235-526.092-521.526z" fill="url(#g)" vectornator:layerName="Oval 1"/><path d="M-277.193 990.189c-1.261-289.291 232.234-524.83 521.525-526.091 289.292-1.26 524.831 232.235 526.091 521.526 1.262 289.296-232.234 524.836-521.526 526.096-289.291 1.26-524.829-232.24-526.09-521.531z" fill="url(#h)" vectornator:layerName="Oval 2"/><path d="M261.695 987.84c-1.26-289.291 232.235-524.829 521.526-526.091 289.289-1.26 524.839 232.235 526.099 521.526 1.26 289.295-232.24 524.825-521.532 526.085-289.293 1.27-524.831-232.23-526.093-521.52z" fill="url(#i)" vectornator:layerName="Oval 3"/></g></g></g></g><path d="M18 530C18 247.23 247.23 18 530 18s512 229.23 512 512-229.23 512-512 512S18 812.77 18 530z" fill="none" stroke="#310024" stroke-width="40" vectornator:layerName="Oval 1"/></g></svg>
